website/img/icon-glass.svg

<svg clip-rule="evenodd" fill-rule="evenodd" stroke-linejoin="round" stroke-miterlimit="2" viewBox="0 0 174 108" xmlns="http://www.w3.org/2000/svg"><path d="m401.059 370.139c.604-.965 1.689-1.569 5.026-1.569.765 0 1.61 0 2.573.08 5.711.322 6.637 1.53 6.797 1.932 0 .038.723 2.211-1.449 5.951-1.084 1.768-3.537 2.815-6.634 2.815-1.649 0-3.217-.322-4.303-.845-2.331-1.125-2.653-4.101-2.653-5.791 0-.765.241-2.011.643-2.573zm20.95.401c.161-.36 1.085-1.568 6.757-1.89 1.004-.08 1.847-.08 2.572-.08 3.379 0 4.423.604 5.065 1.569.363.562.644 1.808.644 2.573 0 1.69-.32 4.666-2.653 5.791-1.085.523-2.695.845-4.303.845-3.097 0-5.59-1.047-6.634-2.815-2.211-3.74-1.448-5.913-1.448-5.993zm-23.122-2.734 7.76-12.545c.283-.441.805-.563 1.248-.321l.041.041 3.98 2.773c.402.282.522.845.242 1.247-.283.401-.845.523-1.289.241l-3.174-2.211-6.394 10.292c2.533-.321 5.346-.401 8.322-.199l.202.039c2.292.16 3.578.241 5.066.925.362.161.724.321 1.047.482.562.283 1.367.604 1.808.723.201.042.361.081.524.122.242.039.683.039.884 0 .16-.041.362-.08.524-.122.439-.119 1.285-.44 1.847-.723.323-.161.684-.321 1.006-.482 1.528-.684 2.775-.765 5.068-.925l.2-.039c1.047-.042 2.091-.08 3.097-.122h.562c1.729.042 3.339.122 4.865.363l-6.393-10.334-3.176 2.211c-.402.322-1.006.202-1.287-.2-.281-.443-.161-1.006.242-1.288l3.98-2.734.04-.039c.443-.242 1.005-.123 1.248.321l7.839 12.626c.364.241.723.642.765 1.285 0 .202 0 .604-.042.967v.521c.042.726-.24 1.006-.441 1.208-.04.08-.121.16-.16.241-.081.161-.162.36-.202.604-.845 5.144-1.045 5.829-3.216 6.996-1.006.523-3.137.884-5.267.884-1.69 0-4.062-.2-6.073-1.247-2.896-1.527-3.981-6.755-4.02-6.957 0-.08-.123-.723-1.368-.723h-.08c-1.327 0-1.407.643-1.407.684-.041.241-1.127 5.469-4.063 6.996-1.969 1.047-4.383 1.247-6.031 1.247-2.132 0-4.262-.361-5.307-.884-2.133-1.167-2.333-1.852-3.177-6.996-.039-.244-.12-.443-.202-.604-.04-.081-.121-.161-.201-.241-.201-.202-.441-.482-.441-1.208v-1.488c.04-.762.562-1.205 1.004-1.407z" fill="#00bddf" fill-rule="nonzero" transform="matrix(4.16667 0 0 4.16667 -1657.85 -1478.41)"/></svg>

<?xml version="1.0" encoding="UTF-8" standalone="no"?>
<!DOCTYPE svg PUBLIC "-//W3C//DTD SVG 1.1//EN" "http://www.w3.org/Graphics/SVG/1.1/DTD/svg11.dtd">
<svg width="100%" height="100%" viewBox="0 0 174 108" version="1.1" xmlns="http://www.w3.org/2000/svg" xmlns:xlink="http://www.w3.org/1999/xlink" xml:space="preserve" xmlns:serif="http://www.serif.com/" style="fill-rule:evenodd;clip-rule:evenodd;stroke-linejoin:round;stroke-miterlimit:2;">
    <g transform="matrix(1,0,0,1,-1657.85,-1478.41)">
        <g transform="matrix(4.16667,0,0,4.16667,0,0)">
            <path d="M401.059,370.139C401.663,369.174 402.748,368.57 406.085,368.57C406.85,368.57 407.695,368.57 408.658,368.65C414.369,368.972 415.295,370.18 415.455,370.582C415.455,370.62 416.178,372.793 414.006,376.533C412.922,378.301 410.469,379.348 407.372,379.348C405.723,379.348 404.155,379.026 403.069,378.503C400.738,377.378 400.416,374.402 400.416,372.712C400.416,371.947 400.657,370.701 401.059,370.139ZM422.009,370.54C422.17,370.18 423.094,368.972 428.766,368.65C429.77,368.57 430.613,368.57 431.338,368.57C434.717,368.57 435.761,369.174 436.403,370.139C436.766,370.701 437.047,371.947 437.047,372.712C437.047,374.402 436.727,377.378 434.394,378.503C433.309,379.026 431.699,379.348 430.091,379.348C426.994,379.348 424.501,378.301 423.457,376.533C421.246,372.793 422.009,370.62 422.009,370.54ZM398.887,367.806L406.647,355.261C406.93,354.82 407.452,354.698 407.895,354.94L407.936,354.981L411.916,357.754C412.318,358.036 412.438,358.599 412.158,359.001C411.875,359.402 411.313,359.524 410.869,359.242L407.695,357.031L401.301,367.323C403.834,367.002 406.647,366.922 409.623,367.124L409.825,367.163C412.117,367.323 413.403,367.404 414.891,368.088C415.253,368.249 415.615,368.409 415.938,368.57C416.5,368.853 417.305,369.174 417.746,369.293C417.947,369.335 418.107,369.374 418.27,369.415C418.512,369.454 418.953,369.454 419.154,369.415C419.314,369.374 419.516,369.335 419.678,369.293C420.117,369.174 420.963,368.853 421.525,368.57C421.848,368.409 422.209,368.249 422.531,368.088C424.059,367.404 425.306,367.323 427.599,367.163L427.799,367.124C428.846,367.082 429.89,367.044 430.896,367.002L431.458,367.002C433.187,367.044 434.797,367.124 436.323,367.365L429.93,357.031L426.754,359.242C426.352,359.564 425.748,359.444 425.467,359.042C425.186,358.599 425.306,358.036 425.709,357.754L429.689,355.02L429.729,354.981C430.172,354.739 430.734,354.858 430.977,355.302L438.816,367.928C439.18,368.169 439.539,368.57 439.581,369.213C439.581,369.415 439.581,369.817 439.539,370.18L439.539,370.701C439.581,371.427 439.299,371.707 439.098,371.909C439.058,371.989 438.977,372.069 438.938,372.15C438.857,372.311 438.776,372.51 438.736,372.754C437.891,377.898 437.691,378.583 435.52,379.75C434.514,380.273 432.383,380.634 430.253,380.634C428.563,380.634 426.191,380.434 424.18,379.387C421.284,377.86 420.199,372.632 420.16,372.43C420.16,372.35 420.037,371.707 418.792,371.707L418.712,371.707C417.385,371.707 417.305,372.35 417.305,372.391C417.264,372.632 416.178,377.86 413.242,379.387C411.273,380.434 408.859,380.634 407.211,380.634C405.079,380.634 402.949,380.273 401.904,379.75C399.771,378.583 399.571,377.898 398.727,372.754C398.688,372.51 398.607,372.311 398.525,372.15C398.485,372.069 398.404,371.989 398.324,371.909C398.123,371.707 397.883,371.427 397.883,370.701L397.883,369.213C397.923,368.451 398.445,368.008 398.887,367.806Z" style="fill:rgb(0,189,223);fill-rule:nonzero;"/>
        </g>
    </g>
</svg>
